X: 21053
T: YES, OR NO! -- Valse 3
C: By R. M. Taylor
B: K\"ohler's Violin Repository, v.2, 1885 p.105 #3
F: http://www.archive.org/details/klersviolinrepos02rugg
Z: 2012 John Chambers <jc:trillian.mit.edu>
M: 3/4
L: 1/8
K: G
[|\
(E4^D2) | (E4G2) | c6 | B6 | (A4^G2) | (A4^A2) | (B4G2) | D6 |\
(e4^d2) | (e4g2) | c'6 | b6 | (a4^g2) | (a4b2) | g6- | g2z2z2 :|
|:\
(dg) .g.g.g.g | (gf) .f.f.f.f | (fe) .e.e.e.f | (e4d2) |\
(de) .e.e.e.f | (e4d2) | (DE) .E.E.E.F | (E4D2) |
(dg) .g.g.g.g | (gf) .f.f.f.f | (fe) .e.e.e.f | (e4d2) |\
(de) .e.e.e.f | (e4f2) | g2z2(udf) | g2z2"_Fine."z2 :|

% newpage

%%sep 2 1 500

